!!!SOCIAL_FUNCTION:	children's dances
!!!PDT:	1956
!!!OTL: No_199_Lightningbug_Dance_Song.krn
!!!LANG: Non-Tone
!!!LING_GROUP: Muskogean
!!!REG: Florida
**kern
*staff1
=1-
*clefF4
*k[b-]
*M2/4
4.r
16F\LL
16F\JJ
=2
8C^/L
8C/J
8C^\L
16F\L
16F\JJ
=3
8C^/L
8C/J
8C^\L
16G\L
16G\JJ
=4
8F^\L
8F\J
8F^\L
16F\L
16F\JJ
=5
8C^/L
8C/J
8C^\L
16F\L
16F\JJ
=6
8C^/L
8C/J
8C^\L
16F\L
16F\JJ
=7
8C^/L
8C/J
8C^\L
16G\L
16G\JJ
=8
8F^\L
8F\J
8F^\L
16F\L
16F\JJ
=9
8C^/L
8C/J
8C^\L
16F\L
16F\JJ
=10
8C^/L
8C/J
8C^\L
16G\L
16G\JJ
=11
8F^\L
8F\J
8F^\L
16F\L
16F\JJ
=12
8C^/L
8C/J
8C^\L
16F\L
16F\JJ
=13
8C^/L
8C/J
8C^\L
16G\L
16G\JJ
=14
8F^\L
8F\J
8F^\L
16F\L
16F\JJ
=15
8C^/L
8C/J
8C^\L
16F\L
16F\JJ
=16
8C^/L
8C/J
8C^\L
16F\L
16F\JJ
=17||
*M5/8
8C/L
8C/
(8C/
8AA/)
8AA/J
=18
4C/
4.r
==
*-
